X: 3
T:Johnny Harling's
M:C|
L:1/8
Q:180
C:Liz Carroll
R:reel
D:Liz Carroll: A Friend Indeed
Z:Devin McCabe
K:D
DE|:FA (3BAF dFAd|efaf edcd|BE (3edB ABde|dBAF EDB,E|
!FA (3BAF AFEF|DB,GA BAdb|afed (3Bcd Af|1afea fddA:|2afea fdde|
!:f2Bc dfbf|aA (3cBA dBcA|bB (3dcB FBd^G|Acac ~B3c|
!dFAd f2af|DB,GA BAdb|afed (3Bcd Af|1afea fdde:|2afea fddA||
